hosted/assets/icon/widgets/dark-mode/date-range-calendar.svg

<svg width="50" height="50" viewBox="0 0 50 50" fill="none" xmlns="http://www.w3.org/2000/svg">
<path d="M0.999902 31.0263C0.999902 28.2794 3.2267 26.0527 5.97359 26.0527H33.0525C35.7994 26.0527 38.0262 28.2794 38.0262 31.0263C38.0262 33.7732 35.7994 36 33.0525 36H5.97358C3.22669 36 0.999902 33.7732 0.999902 31.0263Z" fill="#4A6BB7"/>
<path fill-rule="evenodd" clip-rule="evenodd" d="M0.149902 31.0263C0.149902 27.81 2.75725 25.2027 5.97359 25.2027H33.0525C36.2689 25.2027 38.8762 27.81 38.8762 31.0263C38.8762 34.2427 36.2689 36.85 33.0525 36.85H5.97358C2.75724 36.85 0.149902 34.2427 0.149902 31.0263ZM5.97359 26.9027C3.69614 26.9027 1.8499 28.7489 1.8499 31.0263C1.8499 33.3038 3.69613 35.15 5.97358 35.15H33.0525C35.33 35.15 37.1762 33.3038 37.1762 31.0263C37.1762 28.7489 35.33 26.9027 33.0525 26.9027H5.97359Z" fill="white"/>
<path d="M24.7631 17.9737C24.7631 15.2268 26.9899 13 29.7368 13H44.1052C46.8521 13 49.0789 15.2268 49.0789 17.9737C49.0789 20.7206 46.8521 22.9474 44.1052 22.9474H29.7368C26.9899 22.9474 24.7631 20.7206 24.7631 17.9737Z" fill="#4A6BB7"/>
<path fill-rule="evenodd" clip-rule="evenodd" d="M23.9131 17.9737C23.9131 14.7574 26.5204 12.15 29.7368 12.15H44.1052C47.3215 12.15 49.9289 14.7574 49.9289 17.9737C49.9289 21.19 47.3215 23.7974 44.1052 23.7974H29.7368C26.5204 23.7974 23.9131 21.19 23.9131 17.9737ZM29.7368 13.85C27.4593 13.85 25.6131 15.6963 25.6131 17.9737C25.6131 20.2512 27.4593 22.0974 29.7368 22.0974H44.1052C46.3826 22.0974 48.2289 20.2512 48.2289 17.9737C48.2289 15.6963 46.3826 13.85 44.1052 13.85H29.7368Z" fill="white"/>
<path d="M7.67047 32.8654V33.7106H4.48096C4.5155 33.3911 4.61912 33.0888 4.79182 32.8039C4.96452 32.5168 5.30559 32.1368 5.81505 31.6641C6.22521 31.282 6.4767 31.0229 6.56952 30.8869C6.69473 30.6991 6.75733 30.5135 6.75733 30.33C6.75733 30.1271 6.70228 29.9717 6.59219 29.8637C6.48425 29.7536 6.33422 29.6986 6.1421 29.6986C5.95213 29.6986 5.80102 29.7558 5.68876 29.8702C5.57651 29.9846 5.51175 30.1746 5.49448 30.4401L4.58782 30.3494C4.64179 29.8486 4.81125 29.4892 5.0962 29.2711C5.38115 29.0531 5.73734 28.9441 6.16476 28.9441C6.6332 28.9441 7.00126 29.0704 7.26895 29.323C7.53663 29.5755 7.67047 29.8896 7.67047 30.2652C7.67047 30.479 7.63161 30.6829 7.5539 30.8772C7.47834 31.0694 7.35745 31.2712 7.19123 31.4828C7.08114 31.6231 6.88253 31.8249 6.59543 32.0883C6.30832 32.3516 6.12591 32.5265 6.04819 32.6128C5.97264 32.6992 5.91111 32.7834 5.86362 32.8654H7.67047Z" fill="white"/>
<path d="M10.6171 33.7106H9.70722V30.2814C9.37477 30.5923 8.98297 30.8222 8.53179 30.9711V30.1454C8.76925 30.0677 9.02722 29.9209 9.30569 29.7051C9.58417 29.487 9.77522 29.2334 9.87883 28.9441H10.6171V33.7106Z" fill="white"/>
<path d="M6.92571 20.6579H6.01581V17.2288C5.68337 17.5397 5.29156 17.7696 4.84039 17.9185V17.0928C5.07785 17.0151 5.33581 16.8683 5.61429 16.6524C5.89276 16.4344 6.08381 16.1807 6.18743 15.8915H6.92571V20.6579Z" fill="white"/>
<path d="M8.28894 16.8208V15.9757H11.4007V16.6362C11.1438 16.8888 10.8826 17.2515 10.6171 17.7242C10.3516 18.197 10.1487 18.7 10.0084 19.2332C9.8702 19.7642 9.8022 20.2391 9.80436 20.6579H8.92684C8.94195 20.0017 9.07687 19.3325 9.3316 18.6503C9.58849 17.9682 9.93064 17.3583 10.3581 16.8208H8.28894Z" fill="white"/>
<path d="M19.2754 32.8654V33.7106H16.0859C16.1205 33.3911 16.2241 33.0888 16.3968 32.8039C16.5695 32.5168 16.9106 32.1368 17.42 31.6641C17.8302 31.282 18.0817 31.0229 18.1745 30.8869C18.2997 30.6991 18.3623 30.5135 18.3623 30.33C18.3623 30.1271 18.3073 29.9717 18.1972 29.8637C18.0892 29.7536 17.9392 29.6986 17.7471 29.6986C17.5571 29.6986 17.406 29.7558 17.2937 29.8702C17.1815 29.9846 17.1167 30.1746 17.0995 30.4401L16.1928 30.3494C16.2468 29.8486 16.4162 29.4892 16.7012 29.2711C16.9861 29.0531 17.3423 28.9441 17.7697 28.9441C18.2382 28.9441 18.6062 29.0704 18.8739 29.323C19.1416 29.5755 19.2754 29.8896 19.2754 30.2652C19.2754 30.479 19.2366 30.6829 19.1589 30.8772C19.0833 31.0694 18.9624 31.2712 18.7962 31.4828C18.6861 31.6231 18.4875 31.8249 18.2004 32.0883C17.9133 32.3516 17.7309 32.5265 17.6532 32.6128C17.5776 32.6992 17.5161 32.7834 17.4686 32.8654H19.2754Z" fill="white"/>
<path d="M22.9669 32.8654V33.7106H19.7773C19.8119 33.3911 19.9155 33.0888 20.0882 32.8039C20.2609 32.5168 20.602 32.1368 21.1114 31.6641C21.5216 31.282 21.7731 31.0229 21.8659 30.8869C21.9911 30.6991 22.0537 30.5135 22.0537 30.33C22.0537 30.1271 21.9987 29.9717 21.8886 29.8637C21.7806 29.7536 21.6306 29.6986 21.4385 29.6986C21.2485 29.6986 21.0974 29.7558 20.9852 29.8702C20.8729 29.9846 20.8081 30.1746 20.7909 30.4401L19.8842 30.3494C19.9382 29.8486 20.1076 29.4892 20.3926 29.2711C20.6775 29.0531 21.0337 28.9441 21.4611 28.9441C21.9296 28.9441 22.2977 29.0704 22.5653 29.323C22.833 29.5755 22.9669 29.8896 22.9669 30.2652C22.9669 30.479 22.928 30.6829 22.8503 30.8772C22.7747 31.0694 22.6538 31.2712 22.4876 31.4828C22.3775 31.6231 22.1789 31.8249 21.8918 32.0883C21.6047 32.3516 21.4223 32.5265 21.3446 32.6128C21.269 32.6992 21.2075 32.7834 21.16 32.8654H22.9669Z" fill="white"/>
<path d="M18.5307 20.6579H17.6208V17.2288C17.2883 17.5397 16.8965 17.7696 16.4454 17.9185V17.0928C16.6828 17.0151 16.9408 16.8683 17.2193 16.6524C17.4977 16.4344 17.6888 16.1807 17.7924 15.8915H18.5307V20.6579Z" fill="white"/>
<path d="M20.6743 18.0966C20.439 17.9973 20.2674 17.8613 20.1594 17.6886C20.0537 17.5138 20.0008 17.3227 20.0008 17.1155C20.0008 16.7614 20.1238 16.4689 20.3699 16.2379C20.6182 16.007 20.97 15.8915 21.4255 15.8915C21.8767 15.8915 22.2264 16.007 22.4747 16.2379C22.7251 16.4689 22.8503 16.7614 22.8503 17.1155C22.8503 17.3357 22.7931 17.5321 22.6787 17.7048C22.5643 17.8753 22.4034 18.0059 22.1962 18.0966C22.4596 18.2024 22.6592 18.3567 22.7952 18.5596C22.9334 18.7626 23.0025 18.9968 23.0025 19.2623C23.0025 19.7005 22.8622 20.0567 22.5815 20.3309C22.303 20.605 21.9317 20.7421 21.4676 20.7421C21.0359 20.7421 20.6765 20.6288 20.3893 20.4021C20.0504 20.1344 19.881 19.7675 19.881 19.3012C19.881 19.0443 19.9446 18.809 20.072 18.5953C20.1994 18.3794 20.4001 18.2132 20.6743 18.0966ZM20.8621 17.1802C20.8621 17.3616 20.9128 17.503 21.0143 17.6044C21.1179 17.7059 21.255 17.7566 21.4255 17.7566C21.5982 17.7566 21.7364 17.7059 21.84 17.6044C21.9436 17.5008 21.9954 17.3583 21.9954 17.177C21.9954 17.0065 21.9436 16.8705 21.84 16.769C21.7385 16.6654 21.6036 16.6136 21.4352 16.6136C21.2604 16.6136 21.1212 16.6654 21.0175 16.769C20.9139 16.8726 20.8621 17.0097 20.8621 17.1802ZM20.7779 19.2137C20.7779 19.4642 20.8416 19.6595 20.969 19.7998C21.0985 19.9401 21.2593 20.0103 21.4514 20.0103C21.6392 20.0103 21.7947 19.9434 21.9177 19.8095C22.0408 19.6735 22.1023 19.4782 22.1023 19.2235C22.1023 19.0011 22.0397 18.823 21.9145 18.6892C21.7893 18.5532 21.6306 18.4852 21.4385 18.4852C21.2161 18.4852 21.0499 18.5618 20.9398 18.7151C20.8319 18.8683 20.7779 19.0346 20.7779 19.2137Z" fill="white"/>
<path d="M30.8809 32.8654V33.7106H27.6914C27.726 33.3911 27.8296 33.0888 28.0023 32.8039C28.175 32.5168 28.516 32.1368 29.0255 31.6641C29.4357 31.282 29.6871 31.0229 29.78 30.8869C29.9052 30.6991 29.9678 30.5135 29.9678 30.33C29.9678 30.1271 29.9127 29.9717 29.8026 29.8637C29.6947 29.7536 29.5447 29.6986 29.3525 29.6986C29.1626 29.6986 29.0115 29.7558 28.8992 29.8702C28.787 29.9846 28.7222 30.1746 28.7049 30.4401L27.7983 30.3494C27.8522 29.8486 28.0217 29.4892 28.3066 29.2711C28.5916 29.0531 28.9478 28.9441 29.3752 28.9441C29.8437 28.9441 30.2117 29.0704 30.4794 29.323C30.7471 29.5755 30.8809 29.8896 30.8809 30.2652C30.8809 30.479 30.8421 30.6829 30.7643 30.8772C30.6888 31.0694 30.5679 31.2712 30.4017 31.4828C30.2916 31.6231 30.093 31.8249 29.8059 32.0883C29.5188 32.3516 29.3364 32.5265 29.2586 32.6128C29.1831 32.6992 29.1216 32.7834 29.0741 32.8654H30.8809Z" fill="white"/>
<path d="M31.467 32.4509L32.3478 32.3441C32.3758 32.5686 32.4514 32.7402 32.5744 32.8589C32.6975 32.9777 32.8464 33.037 33.0213 33.037C33.2091 33.037 33.3667 32.9658 33.494 32.8233C33.6236 32.6808 33.6883 32.4887 33.6883 32.2469C33.6883 32.0181 33.6268 31.8368 33.5038 31.7029C33.3807 31.5691 33.2307 31.5022 33.0537 31.5022C32.9371 31.5022 32.7979 31.5248 32.636 31.5702L32.7363 30.8287C32.9824 30.8351 33.1702 30.7823 33.2998 30.67C33.4293 30.5556 33.494 30.4045 33.494 30.2167C33.494 30.0569 33.4465 29.9296 33.3516 29.8346C33.2566 29.7396 33.1303 29.6921 32.9727 29.6921C32.8173 29.6921 32.6845 29.7461 32.5744 29.854C32.4643 29.9619 32.3974 30.1195 32.3737 30.3268L31.535 30.1843C31.5933 29.8972 31.6807 29.6684 31.7973 29.4978C31.916 29.3251 32.0801 29.1902 32.2895 29.0931C32.501 28.9938 32.7374 28.9441 32.9986 28.9441C33.4455 28.9441 33.8038 29.0866 34.0737 29.3715C34.296 29.6047 34.4072 29.868 34.4072 30.1616C34.4072 30.5783 34.1794 30.9107 33.7239 31.1589C33.9959 31.2172 34.2129 31.3478 34.3748 31.5508C34.5389 31.7537 34.6209 31.9987 34.6209 32.2858C34.6209 32.7024 34.4687 33.0575 34.1643 33.3511C33.8599 33.6447 33.4811 33.7915 33.0278 33.7915C32.5982 33.7915 32.242 33.6685 31.9592 33.4224C31.6764 33.1741 31.5123 32.8503 31.467 32.4509Z" fill="white"/>
<path d="M30.1362 20.6579H29.2263V17.2288C28.8938 17.5397 28.502 17.7696 28.0508 17.9185V17.0928C28.2883 17.0151 28.5463 16.8683 28.8247 16.6524C29.1032 16.4344 29.2943 16.1807 29.3979 15.8915H30.1362V20.6579Z" fill="white"/>
<path d="M31.5188 19.5602L32.3996 19.4631C32.4212 19.6422 32.4773 19.775 32.568 19.8614C32.6586 19.9477 32.7784 19.9909 32.9274 19.9909C33.1152 19.9909 33.2749 19.9045 33.4066 19.7318C33.5383 19.5591 33.6225 19.2008 33.6592 18.6568C33.4304 18.9223 33.1443 19.0551 32.8011 19.0551C32.4276 19.0551 32.1049 18.9115 31.8329 18.6244C31.5631 18.3351 31.4282 17.9595 31.4282 17.4976C31.4282 17.0162 31.5706 16.6287 31.8556 16.3351C32.1427 16.0393 32.5075 15.8915 32.95 15.8915C33.4314 15.8915 33.8265 16.0782 34.1352 16.4517C34.4439 16.823 34.5982 17.435 34.5982 18.2877C34.5982 19.1555 34.4374 19.7815 34.1158 20.1657C33.7941 20.55 33.3753 20.7421 32.8594 20.7421C32.4881 20.7421 32.188 20.6439 31.9592 20.4474C31.7304 20.2488 31.5836 19.9531 31.5188 19.5602ZM33.5782 17.572C33.5782 17.2785 33.5102 17.0507 33.3742 16.8888C33.2404 16.7269 33.085 16.6459 32.908 16.6459C32.7396 16.6459 32.5993 16.7129 32.487 16.8467C32.3769 16.9784 32.3219 17.1953 32.3219 17.4976C32.3219 17.8041 32.3823 18.0297 32.5032 18.1743C32.6241 18.3168 32.7752 18.388 32.9565 18.388C33.1314 18.388 33.2782 18.319 33.3969 18.1808C33.5178 18.0426 33.5782 17.8397 33.5782 17.572Z" fill="white"/>
<path d="M42.4859 32.8654V33.7106H39.2964C39.3309 33.3911 39.4345 33.0888 39.6072 32.8039C39.7799 32.5168 40.121 32.1368 40.6305 31.6641C41.0406 31.282 41.2921 31.0229 41.385 30.8869C41.5102 30.6991 41.5728 30.5135 41.5728 30.33C41.5728 30.1271 41.5177 29.9717 41.4076 29.8637C41.2997 29.7536 41.1497 29.6986 40.9575 29.6986C40.7676 29.6986 40.6165 29.7558 40.5042 29.8702C40.3919 29.9846 40.3272 30.1746 40.3099 30.4401L39.4032 30.3494C39.4572 29.8486 39.6267 29.4892 39.9116 29.2711C40.1966 29.0531 40.5528 28.9441 40.9802 28.9441C41.4486 28.9441 41.8167 29.0704 42.0844 29.323C42.3521 29.5755 42.4859 29.8896 42.4859 30.2652C42.4859 30.479 42.447 30.6829 42.3693 30.8772C42.2938 31.0694 42.1729 31.2712 42.0067 31.4828C41.8966 31.6231 41.698 31.8249 41.4109 32.0883C41.1237 32.3516 40.9413 32.5265 40.8636 32.6128C40.7881 32.6992 40.7265 32.7834 40.6791 32.8654H42.4859Z" fill="white"/>
<path d="M44.8885 33.7106V32.7553H42.9457V31.9588L45.0051 28.9441H45.7693V31.9555H46.3586V32.7553H45.7693V33.7106H44.8885ZM44.8885 31.9555V30.3332L43.7973 31.9555H44.8885Z" fill="white"/>
<path d="M42.4859 19.8128V20.6579H39.2964C39.3309 20.3384 39.4345 20.0362 39.6072 19.7513C39.7799 19.4642 40.121 19.0842 40.6305 18.6115C41.0406 18.2294 41.2921 17.9703 41.385 17.8343C41.5102 17.6465 41.5728 17.4609 41.5728 17.2774C41.5728 17.0745 41.5177 16.919 41.4076 16.8111C41.2997 16.701 41.1497 16.6459 40.9575 16.6459C40.7676 16.6459 40.6165 16.7032 40.5042 16.8176C40.3919 16.932 40.3272 17.1219 40.3099 17.3875L39.4032 17.2968C39.4572 16.796 39.6267 16.4366 39.9116 16.2185C40.1966 16.0005 40.5528 15.8915 40.9802 15.8915C41.4486 15.8915 41.8167 16.0178 42.0844 16.2703C42.3521 16.5229 42.4859 16.837 42.4859 17.2126C42.4859 17.4263 42.447 17.6303 42.3693 17.8246C42.2938 18.0167 42.1729 18.2186 42.0067 18.4301C41.8966 18.5704 41.698 18.7723 41.4109 19.0356C41.1237 19.299 40.9413 19.4739 40.8636 19.5602C40.7881 19.6466 40.7265 19.7308 40.6791 19.8128H42.4859Z" fill="white"/>
<path d="M44.6425 15.8915C45.1023 15.8915 45.4617 16.0555 45.7207 16.3837C46.0294 16.7722 46.1838 17.4166 46.1838 18.3168C46.1838 19.2148 46.0284 19.8603 45.7175 20.2532C45.4606 20.577 45.1023 20.7389 44.6425 20.7389C44.1805 20.7389 43.8081 20.5619 43.5253 20.2078C43.2425 19.8516 43.1011 19.2181 43.1011 18.3071C43.1011 17.4134 43.2566 16.7701 43.5674 16.3772C43.8243 16.0534 44.1826 15.8915 44.6425 15.8915ZM44.6425 16.6459C44.5324 16.6459 44.4341 16.6816 44.3478 16.7528C44.2614 16.8219 44.1945 16.9471 44.147 17.1284C44.0844 17.3637 44.0531 17.7598 44.0531 18.3168C44.0531 18.8737 44.0812 19.2569 44.1373 19.4663C44.1934 19.6735 44.2636 19.8117 44.3478 19.8808C44.4341 19.9499 44.5324 19.9844 44.6425 19.9844C44.7526 19.9844 44.8508 19.9499 44.9371 19.8808C45.0235 19.8095 45.0904 19.6833 45.1379 19.5019C45.2005 19.2688 45.2318 18.8737 45.2318 18.3168C45.2318 17.7598 45.2037 17.3778 45.1476 17.1705C45.0915 16.9611 45.0202 16.8219 44.9339 16.7528C44.8497 16.6816 44.7526 16.6459 44.6425 16.6459Z" fill="white"/>
</svg>

<svg width="50" height="50" fill="none" xmlns="http://www.w3.org/2000/svg"><path d="M1 31.026a4.974 4.974 0 014.974-4.973h27.078a4.974 4.974 0 110 9.947H5.975A4.974 4.974 0 011 31.026z" fill="#4A6BB7"/><path fill-rule="evenodd" clip-rule="evenodd" d="M.15 31.026a5.824 5.824 0 015.824-5.823h27.078a5.824 5.824 0 110 11.647H5.975A5.824 5.824 0 01.15 31.026zm5.824-4.123a4.124 4.124 0 100 8.247h27.079a4.124 4.124 0 100-8.247H5.973z" fill="#fff"/><path d="M24.763 17.974A4.974 4.974 0 0129.737 13h14.368a4.974 4.974 0 110 9.947H29.737a4.974 4.974 0 01-4.974-4.973z" fill="#4A6BB7"/><path fill-rule="evenodd" clip-rule="evenodd" d="M23.913 17.974a5.824 5.824 0 015.824-5.824h14.368a5.824 5.824 0 010 11.647H29.737a5.824 5.824 0 01-5.824-5.823zm5.824-4.124a4.124 4.124 0 000 8.247h14.368a4.124 4.124 0 000-8.247H29.737z" fill="#fff"/><path d="M7.67 32.865v.846H4.481c.035-.32.138-.622.31-.907.174-.287.515-.667 1.024-1.14.41-.382.662-.641.755-.777a1 1 0 00.187-.557c0-.203-.055-.358-.165-.466-.108-.11-.258-.165-.45-.165a.606.606 0 00-.453.171c-.112.115-.177.305-.195.57l-.906-.09c.054-.501.223-.86.508-1.079.285-.218.641-.327 1.069-.327.468 0 .836.126 1.104.379.268.253.401.567.401.942 0 .214-.038.418-.116.612a2.451 2.451 0 01-.363.606c-.11.14-.308.342-.596.605-.287.264-.47.438-.547.525-.075.086-.137.17-.184.252H7.67zm2.947.845h-.91v-3.429a3.132 3.132 0 01-1.175.69v-.826c.237-.077.495-.224.774-.44a1.69 1.69 0 00.573-.76h.738v4.766zM6.926 20.658h-.91v-3.43a3.11 3.11 0 01-1.176.69v-.825c.238-.078.496-.225.774-.44a1.69 1.69 0 00.573-.761h.739v4.766zm1.363-3.838v-.844H11.4v.66c-.257.253-.518.616-.784 1.088a6.389 6.389 0 00-.609 1.51 5.61 5.61 0 00-.204 1.424h-.877c.015-.656.15-1.326.405-2.008a6.722 6.722 0 011.026-1.83h-2.07zm10.986 16.045v.846h-3.19c.035-.32.14-.622.312-.907.173-.287.514-.667 1.023-1.14.41-.382.662-.641.754-.777a1 1 0 00.188-.557c0-.203-.055-.358-.165-.466-.108-.11-.258-.165-.45-.165a.606.606 0 00-.453.171c-.113.115-.177.305-.195.57l-.906-.09c.054-.501.223-.86.508-1.079.285-.218.641-.327 1.069-.327.468 0 .836.126 1.104.379.268.253.401.567.401.942 0 .214-.038.418-.116.612a2.453 2.453 0 01-.363.606c-.11.14-.308.342-.596.605-.287.264-.47.438-.547.525-.075.086-.137.17-.184.252h1.806zm3.692 0v.846h-3.19a2.2 2.2 0 01.311-.907c.173-.287.514-.667 1.023-1.14.41-.382.662-.641.755-.777a1 1 0 00.188-.557c0-.203-.055-.358-.165-.466-.108-.11-.258-.165-.45-.165a.606.606 0 00-.454.171c-.112.115-.177.305-.194.57l-.907-.09c.054-.501.224-.86.509-1.079.284-.218.64-.327 1.068-.327.469 0 .837.126 1.104.379.268.253.402.567.402.942 0 .214-.039.418-.117.612a2.453 2.453 0 01-.362.606c-.11.14-.31.342-.596.605-.287.264-.47.438-.547.525-.076.086-.137.17-.185.252h1.807zM18.53 20.658h-.91v-3.43a3.106 3.106 0 01-1.175.69v-.825c.238-.078.496-.225.774-.44a1.69 1.69 0 00.573-.761h.739v4.766zm2.144-2.561c-.235-.1-.407-.236-.515-.408a1.087 1.087 0 01-.158-.573c0-.355.123-.647.369-.878.248-.231.6-.346 1.055-.346.452 0 .801.115 1.05.346.25.23.375.523.375.878 0 .22-.057.416-.171.589-.115.17-.276.3-.483.392.264.105.463.26.6.463.137.203.207.437.207.702 0 .439-.14.795-.422 1.069-.278.274-.65.411-1.113.411-.432 0-.791-.113-1.079-.34-.339-.268-.508-.635-.508-1.1 0-.258.064-.493.191-.707.127-.216.328-.382.602-.498zm.188-.917c0 .182.05.323.152.424a.563.563 0 00.412.153c.172 0 .31-.051.414-.153a.578.578 0 00.155-.427.545.545 0 00-.155-.408.541.541 0 00-.405-.155.565.565 0 00-.418.155.556.556 0 00-.155.411zm-.084 2.034c0 .25.064.446.191.586.13.14.29.21.482.21a.606.606 0 00.467-.2c.123-.136.184-.332.184-.586 0-.223-.062-.401-.188-.535a.619.619 0 00-.476-.204c-.222 0-.388.077-.498.23a.849.849 0 00-.162.499zM30.88 32.865v.846h-3.189a2.2 2.2 0 01.311-.907c.173-.287.514-.667 1.024-1.14.41-.382.661-.641.754-.777a1 1 0 00.188-.557c0-.203-.055-.358-.165-.466-.108-.11-.258-.165-.45-.165a.606.606 0 00-.454.171c-.112.115-.177.305-.194.57l-.907-.09c.054-.501.224-.86.509-1.079.285-.218.64-.327 1.068-.327.469 0 .837.126 1.104.379.268.253.402.567.402.942 0 .214-.039.418-.117.612a2.45 2.45 0 01-.362.606c-.11.14-.309.342-.596.605-.287.264-.47.438-.547.525a1.63 1.63 0 00-.185.252h1.807zm.587-.415l.88-.106c.029.225.104.396.227.515a.62.62 0 00.447.178.609.609 0 00.473-.214c.13-.142.194-.334.194-.576 0-.229-.061-.41-.184-.544a.589.589 0 00-.45-.2c-.117 0-.256.022-.418.067l.1-.741c.246.006.434-.047.564-.159a.575.575 0 00.194-.453.517.517 0 00-.142-.382.512.512 0 00-.38-.143.549.549 0 00-.398.162c-.11.108-.177.265-.2.473l-.839-.143c.058-.287.146-.516.262-.686a1.19 1.19 0 01.492-.405c.212-.1.448-.149.71-.149.447 0 .805.143 1.075.428.222.233.333.496.333.79 0 .416-.228.749-.683.997.272.058.489.189.65.392.165.203.247.448.247.735 0 .416-.152.771-.457 1.065-.304.294-.683.44-1.136.44-.43 0-.786-.122-1.069-.369a1.463 1.463 0 01-.492-.971zm-1.331-11.792h-.91v-3.43a3.106 3.106 0 01-1.175.69v-.825c.237-.078.495-.225.774-.44a1.69 1.69 0 00.573-.761h.738v4.766zm1.383-1.098l.88-.097c.022.18.078.312.169.398a.5.5 0 00.36.13c.187 0 .347-.087.479-.26.131-.172.216-.53.252-1.074a1.086 1.086 0 01-.858.398 1.29 1.29 0 01-.968-.43c-.27-.29-.405-.666-.405-1.127 0-.482.143-.87.428-1.163.287-.296.651-.444 1.094-.444.481 0 .877.187 1.185.56.309.372.463.984.463 1.837 0 .867-.16 1.494-.482 1.878-.322.384-.74.576-1.257.576-.37 0-.671-.098-.9-.295-.229-.198-.375-.494-.44-.887zm2.06-1.988c0-.293-.069-.521-.205-.683-.134-.162-.289-.243-.466-.243a.528.528 0 00-.421.2c-.11.132-.165.35-.165.652 0 .306.06.532.181.676a.57.57 0 00.453.214.558.558 0 00.44-.207c.122-.138.182-.341.182-.609zm8.907 15.293v.846h-3.19a2.2 2.2 0 01.311-.907c.173-.287.514-.667 1.023-1.14.41-.382.662-.641.755-.777a1 1 0 00.188-.557c0-.203-.055-.358-.165-.466-.108-.11-.258-.165-.45-.165a.606.606 0 00-.454.171c-.112.115-.177.305-.194.57l-.907-.09c.054-.501.224-.86.509-1.079.285-.218.64-.327 1.068-.327.469 0 .837.126 1.104.379.268.253.402.567.402.942 0 .214-.039.418-.117.612a2.45 2.45 0 01-.362.606c-.11.14-.309.342-.596.605-.287.264-.47.438-.547.525-.076.086-.137.17-.185.252h1.807zm2.403.845v-.955h-1.943v-.796l2.06-3.015h.763v3.012h.59v.8h-.59v.955h-.88zm0-1.755v-1.622l-1.092 1.623h1.092zm-2.403-12.142v.845h-3.19a2.2 2.2 0 01.311-.907c.173-.287.514-.667 1.023-1.14.41-.382.662-.64.755-.777a1 1 0 00.188-.557c0-.203-.055-.358-.165-.466-.108-.11-.258-.165-.45-.165a.606.606 0 00-.454.172c-.112.114-.177.304-.194.57l-.907-.091c.054-.501.224-.86.509-1.079.285-.218.64-.326 1.068-.326.469 0 .837.126 1.104.378.268.253.402.567.402.943 0 .213-.039.417-.117.612a2.449 2.449 0 01-.362.605c-.11.14-.309.342-.596.606-.287.263-.47.438-.547.524-.076.087-.137.17-.185.253h1.807zm2.156-3.921c.46 0 .82.163 1.079.492.308.388.463 1.033.463 1.933 0 .898-.156 1.543-.466 1.936-.257.324-.616.486-1.076.486a1.36 1.36 0 01-1.117-.531c-.282-.356-.424-.99-.424-1.9 0-.895.156-1.538.466-1.93.257-.325.616-.486 1.075-.486zm0 .754a.45.45 0 00-.294.107c-.087.069-.154.194-.201.375-.063.236-.094.632-.094 1.189s.028.94.084 1.15c.056.207.127.345.21.414a.461.461 0 00.295.103.46.46 0 00.295-.103c.087-.072.153-.198.2-.38.063-.232.095-.627.095-1.184 0-.557-.028-.94-.084-1.146-.056-.21-.128-.35-.214-.418a.438.438 0 00-.291-.107z" fill="#fff"/></svg>
